public/avatar/shoe/166.svg

<svg xmlns:xlink="http://www.w3.org/1999/xlink" height="38.3" width="36.05" xmlns="http://www.w3.org/2000/svg"><use height="17.9" transform="translate(12.05 11.25)" width="20.6" xlink:href="#a"/><defs><g id="a"><path d="M5.45-1.7Q6.9 1.1 8.4 5.85q-17.2 8.6-19.45 5.25-.8-2.7 2.95-7.5Q-5.45.15-2.95-1.7q5.8-2.4 8.4 0" fill="#33a061" fill-rule="evenodd" transform="translate(11.75 3.6)"/><path d="M.7 14.15v-.9l-.1-.35-.05-.25.05-.45.2-.8.25-.5 1.4-2.2 4.9-5.65 1.7-1.35m0 0 1.7-.9.7-.2 1.3-.15 1.4.05 1.15.2.4.15 1.5.75 2.75 7.3" fill="none" stroke="#333" stroke-linecap="round" stroke-linejoin="round" stroke-width=".95"/><path d="M5.3-2.55q.5-.2.65.35L8.8 4.75l.05.35-.25 3.15-.05.3q-1 1.85-2.5 1.95-.4 0-.55-.35l-.2-.65-1.05 2.1-.2.2q-8.9 4.65-15.15.65l-.25-.4q-.6-2.95-.35-3.9.6-1.85 3.15-5.05l.25-.15q1.5-.55 3.6.25 1.85.6 2.85 1.65 2.5-.5 4.8-3.2Q4.9-.6 4.9-1.8v-.1q0-.5.4-.65" fill="#153060" fill-rule="evenodd" transform="translate(11.75 3.6)"/><path d="m7.8 5.4-.25 2.45q-.4.85-1.2 1.1l-1-1.9L3.4 10.6q-7.6 4.65-13.8.75-.4-2.1-.15-3.15l2.85-4q1.45-.45 3.3.35 1.75.75 2.3 1.75 2.7-.45 5.3-3.1Q5.35.9 5.5-.45L7.8 5.4" fill="#67c6dd" fill-rule="evenodd" transform="translate(11.75 3.6)"/><path d="M-2.15 7.5q-3.65-2.4-6.5-2.1l.95-1.2q1.45-.45 3.3.35 1.75.75 2.3 1.75 2.7-.45 5.3-3.1Q5.35.9 5.5-.45l.7 1.9q-3.9 6-8.35 6.05" fill="#ccecf4" fill-rule="evenodd" transform="translate(11.75 3.6)"/><path d="m6.9 3.2.9 2.2-.25 2.45q-.4.85-1.2 1.1l-1-1.9L3.4 10.6q-7.6 4.65-13.8.75-.4-1.9-.15-3.1Q-.9 12.35 6.9 3.2" fill="#1f7da6" fill-rule="evenodd" transform="translate(11.75 3.6)"/><path d="M-7.6 4.15q0-2.35 2.35-2.35 2.3 0 2.3 2.35t-2.3 2.35q-2.35 0-2.35-2.35" fill="#150d33" fill-rule="evenodd" transform="translate(11.75 3.6)"/><path d="M-3.55 4.15q0 1.7-1.7 1.7-1.8 0-1.8-1.7 0-1.8 1.8-1.8 1.7 0 1.7 1.8" fill="#3580af" fill-rule="evenodd" transform="translate(11.75 3.6)"/><path d="M-5.25 2.35q1.7 0 1.7 1.8 0 1.7-1.7 1.7-1.8 0-1.8-1.7.25 1.1 1.4 1.1 1.35 0 1.35-1.4 0-1.35-1.35-1.35l-.4.05.8-.2" fill="#12579e" fill-rule="evenodd" transform="translate(11.75 3.6)"/><path d="M-5.35 3.85q0 .8-.7.8-.75 0-.75-.8 0-.75.75-.75.7 0 .7.75" fill="#fcfcfc" fill-rule="evenodd" transform="translate(11.75 3.6)"/></g></defs></svg>

<?xml version="1.0" encoding="UTF-8" standalone="no"?>
<svg xmlns:xlink="http://www.w3.org/1999/xlink" height="38.3px" width="36.05px" xmlns="http://www.w3.org/2000/svg">
  <g transform="matrix(1.0, 0.0, 0.0, 1.0, 23.8, 14.85)">
    <use height="17.9" transform="matrix(1.0, 0.0, 0.0, 1.0, -11.75, -3.6)" width="20.6" xlink:href="#shape0"/>
  </g>
  <defs>
    <g id="shape0" transform="matrix(1.0, 0.0, 0.0, 1.0, 11.75, 3.6)">
      <path d="M5.45 -1.7 Q6.9 1.1 8.4 5.85 -8.8 14.45 -11.05 11.1 -11.85 8.4 -8.1 3.6 -5.45 0.15 -2.95 -1.7 2.85 -4.1 5.45 -1.7" fill="#33a061" fill-rule="evenodd" stroke="none"/>
      <path d="M-11.05 10.55 L-11.05 9.65 -11.15 9.3 -11.2 9.05 -11.15 8.6 -10.95 7.8 -10.7 7.3 -9.3 5.1 -4.4 -0.55 -2.7 -1.9" fill="none" stroke="#333333" stroke-linecap="round" stroke-linejoin="round" stroke-width="0.9500000000000001"/>
      <path d="M-2.7 -1.9 L-1.0 -2.8 -0.3 -3.0 1.0 -3.15 2.4 -3.1 3.55 -2.9 3.95 -2.75 5.45 -2.0 8.2 5.3" fill="none" stroke="#333333" stroke-linecap="round" stroke-linejoin="round" stroke-width="0.9500000000000001"/>
      <path d="M5.3 -2.55 Q5.8 -2.75 5.95 -2.2 L8.8 4.75 8.85 5.1 8.6 8.25 8.55 8.55 Q7.55 10.4 6.05 10.5 5.65 10.5 5.5 10.15 L5.3 9.5 4.25 11.6 4.05 11.8 Q-4.85 16.45 -11.1 12.45 L-11.35 12.05 Q-11.95 9.1 -11.7 8.15 -11.1 6.3 -8.55 3.1 L-8.3 2.95 Q-6.8 2.4 -4.7 3.2 -2.85 3.8 -1.85 4.85 0.65 4.35 2.95 1.65 4.9 -0.6 4.9 -1.8 L4.9 -1.9 Q4.9 -2.4 5.3 -2.55" fill="#153060" fill-rule="evenodd" stroke="none"/>
      <path d="M7.8 5.4 L7.55 7.85 Q7.15 8.7 6.35 8.95 L5.35 7.05 3.4 10.6 Q-4.2 15.25 -10.4 11.35 -10.8 9.25 -10.55 8.2 L-7.7 4.2 Q-6.25 3.75 -4.4 4.55 -2.65 5.3 -2.1 6.3 0.6 5.85 3.2 3.2 5.35 0.9 5.5 -0.45 L7.8 5.4" fill="#67c6dd" fill-rule="evenodd" stroke="none"/>
      <path d="M-2.15 7.5 Q-5.8 5.1 -8.65 5.4 L-7.7 4.2 Q-6.25 3.75 -4.4 4.55 -2.65 5.3 -2.1 6.3 0.6 5.85 3.2 3.2 5.35 0.9 5.5 -0.45 L6.2 1.45 Q2.3 7.45 -2.15 7.5" fill="#ccecf4" fill-rule="evenodd" stroke="none"/>
      <path d="M6.9 3.2 L7.8 5.4 7.55 7.85 Q7.15 8.7 6.35 8.95 L5.35 7.05 3.4 10.6 Q-4.2 15.25 -10.4 11.35 -10.8 9.45 -10.55 8.25 -0.9 12.35 6.9 3.2" fill="#1f7da6" fill-rule="evenodd" stroke="none"/>
      <path d="M-7.6 4.15 Q-7.6 1.8 -5.25 1.8 -2.95 1.8 -2.95 4.15 -2.95 6.5 -5.25 6.5 -7.6 6.5 -7.6 4.15" fill="#150d33" fill-rule="evenodd" stroke="none"/>
      <path d="M-3.55 4.15 Q-3.55 5.85 -5.25 5.85 -7.05 5.85 -7.05 4.15 -7.05 2.35 -5.25 2.35 -3.55 2.35 -3.55 4.15" fill="#3580af" fill-rule="evenodd" stroke="none"/>
      <path d="M-5.25 2.35 Q-3.55 2.35 -3.55 4.15 -3.55 5.85 -5.25 5.85 -7.05 5.85 -7.05 4.15 -6.8 5.25 -5.65 5.25 -4.3 5.25 -4.3 3.85 -4.3 2.5 -5.65 2.5 L-6.05 2.55 -5.25 2.35" fill="#12579e" fill-rule="evenodd" stroke="none"/>
      <path d="M-5.35 3.85 Q-5.35 4.65 -6.05 4.65 -6.8 4.65 -6.8 3.85 -6.8 3.1 -6.05 3.1 -5.35 3.1 -5.35 3.85" fill="#fcfcfc" fill-rule="evenodd" stroke="none"/>
    </g>
  </defs>
</svg>
